static/img/kroki/e2c218a8ffff0d628640d15e4dae89a6.svg

<?xml version="1.0" encoding="us-ascii" standalone="no"?><svg xmlns="http://www.w3.org/2000/svg" xmlns:xlink="http://www.w3.org/1999/xlink" contentStyleType="text/css" height="252px" preserveAspectRatio="none" style="width:368px;height:252px;" version="1.1" viewBox="0 0 368 252" width="368px" zoomAndPan="magnify"><defs/><g><!--class kubernetes_namespace--><g id="elem_kubernetes_namespace"><rect codeLine="23" fill="#3D176E" height="39.7891" id="kubernetes_namespace" rx="2.5" ry="2.5" style="stroke:#000D19;stroke-width:0.5;" width="239" x="7" y="7"/><ellipse cx="22" cy="26.8945" fill="#ADD1B2" rx="11" ry="11" style="stroke:#181818;stroke-width:1.0;"/><path d="M24.9688,32.5352 Q24.3906,32.832 23.75,32.9727 Q23.1094,33.1289 22.4063,33.1289 Q19.9063,33.1289 18.5781,31.4883 Q17.2656,29.832 17.2656,26.707 Q17.2656,23.582 18.5781,21.9258 Q19.9063,20.2695 22.4063,20.2695 Q23.1094,20.2695 23.75,20.4258 Q24.4063,20.582 24.9688,20.8789 L24.9688,23.5977 Q24.3438,23.0195 23.75,22.7539 Q23.1563,22.4727 22.5313,22.4727 Q21.1875,22.4727 20.5,23.5508 Q19.8125,24.6133 19.8125,26.707 Q19.8125,28.8008 20.5,29.8789 Q21.1875,30.9414 22.5313,30.9414 Q23.1563,30.9414 23.75,30.6758 Q24.3438,30.3945 24.9688,29.8164 L24.9688,32.5352 Z " fill="#000000"/><text fill="#D9B8FF" font-family="Helvetica" font-size="17" lengthAdjust="spacing" textLength="197" x="41" y="32.7798">kubernetes_namespace</text></g><!--class kubernetes_secret--><g id="elem_kubernetes_secret"><rect codeLine="26" fill="#3D176E" height="39.7891" id="kubernetes_secret" rx="2.5" ry="2.5" style="stroke:#000D19;stroke-width:0.5;" width="195" x="29" y="206.58"/><ellipse cx="44" cy="226.4745" fill="#ADD1B2" rx="11" ry="11" style="stroke:#181818;stroke-width:1.0;"/><path d="M46.9688,232.1152 Q46.3906,232.412 45.75,232.5527 Q45.1094,232.7089 44.4063,232.7089 Q41.9063,232.7089 40.5781,231.0683 Q39.2656,229.412 39.2656,226.287 Q39.2656,223.162 40.5781,221.5058 Q41.9063,219.8495 44.4063,219.8495 Q45.1094,219.8495 45.75,220.0058 Q46.4063,220.162 46.9688,220.4589 L46.9688,223.1777 Q46.3438,222.5995 45.75,222.3339 Q45.1563,222.0527 44.5313,222.0527 Q43.1875,222.0527 42.5,223.1308 Q41.8125,224.1933 41.8125,226.287 Q41.8125,228.3808 42.5,229.4589 Q43.1875,230.5214 44.5313,230.5214 Q45.1563,230.5214 45.75,230.2558 Q46.3438,229.9745 46.9688,229.3964 L46.9688,232.1152 Z " fill="#000000"/><text fill="#D9B8FF" font-family="Helvetica" font-size="17" lengthAdjust="spacing" textLength="153" x="63" y="232.3598">kubernetes_secret</text></g><!--class kubernetes_service_account--><g id="elem_kubernetes_service_account"><rect codeLine="29" fill="#3D176E" height="39.7891" id="kubernetes_service_account" rx="2.5" ry="2.5" style="stroke:#000D19;stroke-width:0.5;" width="277" x="84" y="106.79"/><ellipse cx="99" cy="126.6845" fill="#ADD1B2" rx="11" ry="11" style="stroke:#181818;stroke-width:1.0;"/><path d="M101.9688,132.3252 Q101.3906,132.622 100.75,132.7627 Q100.1094,132.9189 99.4063,132.9189 Q96.9063,132.9189 95.5781,131.2783 Q94.2656,129.622 94.2656,126.497 Q94.2656,123.372 95.5781,121.7158 Q96.9063,120.0595 99.4063,120.0595 Q100.1094,120.0595 100.75,120.2158 Q101.4063,120.372 101.9688,120.6689 L101.9688,123.3877 Q101.3438,122.8095 100.75,122.5439 Q100.1563,122.2627 99.5313,122.2627 Q98.1875,122.2627 97.5,123.3408 Q96.8125,124.4033 96.8125,126.497 Q96.8125,128.5908 97.5,129.6689 Q98.1875,130.7314 99.5313,130.7314 Q100.1563,130.7314 100.75,130.4658 Q101.3438,130.1845 101.9688,129.6064 L101.9688,132.3252 Z " fill="#000000"/><text fill="#D9B8FF" font-family="Helvetica" font-size="17" lengthAdjust="spacing" textLength="235" x="118" y="132.5698">kubernetes_service_account</text></g><!--link kubernetes_namespace to kubernetes_secret--><g id="link_kubernetes_namespace_kubernetes_secret"><path codeLine="32" d="M106.05,47.12 C91.91,61.89 74.3,83.64 66.5,106.79 C60.85,123.55 60.85,129.82 66.5,146.58 C74.3,169.74 87.7608,187.1459 101.9008,201.9159 " fill="none" id="kubernetes_namespace-to-kubernetes_secret" style="stroke:#1A83AF;stroke-width:2.0;"/><polygon fill="#1A83AF" points="106.05,206.25,102.7156,196.9828,102.5923,202.6383,96.9368,202.515,106.05,206.25" style="stroke:#1A83AF;stroke-width:2.0;"/></g><!--link kubernetes_namespace to kubernetes_service_account--><g id="link_kubernetes_namespace_kubernetes_service_account"><path codeLine="33" d="M145.47,47.22 C162.3,64.36 182.5475,84.9876 199.3675,102.1276 " fill="none" id="kubernetes_namespace-to-kubernetes_service_account" style="stroke:#1A83AF;stroke-width:2.0;"/><polygon fill="#1A83AF" points="203.57,106.41,200.1212,97.1847,200.0679,102.8413,194.4113,102.788,203.57,106.41" style="stroke:#1A83AF;stroke-width:2.0;"/></g><!--link kubernetes_service_account to kubernetes_secret--><g id="link_kubernetes_service_account_kubernetes_secret"><path codeLine="34" d="M203.53,147.01 C186.7,164.15 166.4525,184.7776 149.6325,201.9176 " fill="none" id="kubernetes_service_account-to-kubernetes_secret" style="stroke:#1A83AF;stroke-width:2.0;"/><polygon fill="#1A83AF" points="145.43,206.2,154.5887,202.578,148.9321,202.6313,148.8788,196.9747,145.43,206.2" style="stroke:#1A83AF;stroke-width:2.0;"/></g><!--SRC=[bP9HQy8m58NV-oi2FWljP5DV1br1jXSPSszZI9hSQ6YRoCsjuiR- -zhfHcoqijUSB_USSxbhBO51jQ4zgw3A0Lta2cqs77d5KaIxosnfaGsKuceqxeepQ-WgCESLi4Sejq1Qy2xnkjQYCE0Sk_6a1owA5ThQoCDuGcvS8u4XZyfAxbnAX3gl2RmmSffFbEgItQ63aKp6Tn1W5YNW4OdZM2RJBdBLghVt7x7G7y0IVsbpIn3432n-gDwKBU6538h-wXSpFdCfjLcnM-_jvP093U39-sBDfTsrjEAbysqS0OAb_GQoe1LC9rADpy9Fb-18jAjZHTrSgW42jpHDWUOm1B3FAFeATGS2WIwAkDK2bbo8nkj8dHq-V1iawMIKpjw7z-7u__uvSOrw0bsn_GO0]--></g></svg>

<svg xmlns="http://www.w3.org/2000/svg" width="368" height="252" viewBox="0 0 368 252"><rect width="239" height="39.789" x="7" y="7" fill="#3D176E" rx="2.5" ry="2.5" style="stroke:#000d19;stroke-width:.5"/><circle cx="22" cy="26.895" r="11" fill="#ADD1B2" style="stroke:#181818;stroke-width:1"/><path d="M24.969 32.535q-.578.297-1.219.438-.64.156-1.344.156-2.5 0-3.828-1.64-1.312-1.657-1.312-4.782t1.312-4.781q1.328-1.656 3.828-1.656.703 0 1.344.156.656.156 1.219.453v2.719q-.625-.578-1.219-.844-.594-.281-1.219-.281-1.343 0-2.031 1.078-.687 1.062-.687 3.156t.687 3.172q.688 1.062 2.031 1.062.625 0 1.219-.265.594-.281 1.219-.86z"/><text x="41" y="32.78" fill="#D9B8FF" font-family="Helvetica" font-size="17" textLength="197">kubernetes_namespace</text><rect width="195" height="39.789" x="29" y="206.58" fill="#3D176E" rx="2.5" ry="2.5" style="stroke:#000d19;stroke-width:.5"/><circle cx="44" cy="226.475" r="11" fill="#ADD1B2" style="stroke:#181818;stroke-width:1"/><path d="M46.969 232.115q-.578.297-1.219.438-.64.156-1.344.156-2.5 0-3.828-1.64-1.312-1.657-1.312-4.782t1.312-4.781q1.328-1.656 3.828-1.656.703 0 1.344.156.656.156 1.219.453v2.719q-.625-.578-1.219-.844-.594-.281-1.219-.281-1.343 0-2.031 1.078-.687 1.062-.687 3.156t.687 3.172q.688 1.062 2.031 1.062.625 0 1.219-.265.594-.281 1.219-.86z"/><text x="63" y="232.36" fill="#D9B8FF" font-family="Helvetica" font-size="17" textLength="153">kubernetes_secret</text><rect width="277" height="39.789" x="84" y="106.79" fill="#3D176E" rx="2.5" ry="2.5" style="stroke:#000d19;stroke-width:.5"/><circle cx="99" cy="126.684" r="11" fill="#ADD1B2" style="stroke:#181818;stroke-width:1"/><path d="M101.969 132.325q-.578.297-1.219.438-.64.156-1.344.156-2.5 0-3.828-1.64-1.312-1.657-1.312-4.782t1.312-4.781q1.328-1.656 3.828-1.656.703 0 1.344.156.656.156 1.219.453v2.719q-.625-.579-1.219-.844-.594-.281-1.219-.281-1.344 0-2.031 1.078-.687 1.062-.687 3.156t.687 3.172q.688 1.062 2.031 1.062.625 0 1.219-.265.594-.281 1.219-.86z"/><text x="118" y="132.57" fill="#D9B8FF" font-family="Helvetica" font-size="17" textLength="235">kubernetes_service_account</text><path fill="none" d="M106.05 47.12C91.91 61.89 74.3 83.64 66.5 106.79c-5.65 16.76-5.65 23.03 0 39.79 7.8 23.16 21.26 40.566 35.4 55.336" style="stroke:#1a83af;stroke-width:2"/><path fill="#1A83AF" d="m106.05 206.25-3.334-9.267-.124 5.655-5.655-.123z" style="stroke:#1a83af;stroke-width:2"/><path fill="none" d="M145.47 47.22c16.83 17.14 37.078 37.768 53.898 54.908" style="stroke:#1a83af;stroke-width:2"/><path fill="#1A83AF" d="m203.57 106.41-3.449-9.225-.053 5.656-5.657-.053z" style="stroke:#1a83af;stroke-width:2"/><path fill="none" d="M203.53 147.01a276511 276511 0 0 0-53.898 54.908" style="stroke:#1a83af;stroke-width:2"/><path fill="#1A83AF" d="m145.43 206.2 9.159-3.622-5.657.053-.053-5.656z" style="stroke:#1a83af;stroke-width:2"/></svg>
